img/area.svg

<svg width="14" height="14" viewBox="0 0 14 14" fill="none" xmlns="http://www.w3.org/2000/svg">
<path d="M13.3157 4.06363V0.562988M13.3157 0.562988H9.8151M13.3157 0.562988L6.31445 7.56428M6.31445 4.06363V7.56428M6.31445 7.56428H9.8151" stroke="black" stroke-width="1.1027" stroke-linecap="round" stroke-linejoin="round"/>
<path d="M8.06476 0.562988H2.8138C2.34958 0.562988 1.90438 0.747397 1.57613 1.07565C1.24788 1.40389 1.06348 1.8491 1.06348 2.31331V11.0649C1.06348 11.5291 1.24788 11.9743 1.57613 12.3026C1.90438 12.6308 2.34958 12.8152 2.8138 12.8152H11.5654C12.0296 12.8152 12.4748 12.6308 12.8031 12.3026C13.1313 11.9743 13.3157 11.5291 13.3157 11.0649V5.81395" stroke="black" stroke-width="1.1027" stroke-linecap="round" stroke-linejoin="round"/>
</svg>

<svg xmlns="http://www.w3.org/2000/svg" width="14" height="14" fill="none"><path stroke="#000" stroke-linecap="round" stroke-linejoin="round" stroke-width="1.103" d="M13.316 4.064V.563m0 0h-3.5m3.5 0L6.314 7.564m0-3.5v3.5m0 0h3.501M8.065.563H2.814a1.75 1.75 0 0 0-1.75 1.75v8.752a1.75 1.75 0 0 0 1.75 1.75h8.751a1.75 1.75 0 0 0 1.75-1.75V5.814"/></svg>
